src/components/Icon/svg-icon/main/coffee.svg

<svg xmlns="http://www.w3.org/2000/svg" width="24" height="24"><path fill="#677078" d="M20 3H4v10c0 2.21 1.79 4 4 4h6c2.21 0 4-1.79 4-4v-3h2a2 2 0 002-2V5c0-1.11-.89-2-2-2zm0 5h-2V5h2v3zM4 19h16v2H4v-2z"/></svg>

<svg xmlns="http://www.w3.org/2000/svg" width="24" height="24" viewBox="0 0 24 24">
  <path fill="#677078" d="M20,3 L4,3 L4,13 C4,15.21 5.79,17 8,17 L14,17 C16.21,17 18,15.21 18,13 L18,10 L20,10 C21.11,10 22,9.1 22,8 L22,5 C22,3.89 21.11,3 20,3 Z M20,8 L18,8 L18,5 L20,5 L20,8 Z M4,19 L20,19 L20,21 L4,21 L4,19 Z"/>
</svg>
